packages/natds-icons/svg/outlined-alert-indeterminate.svg

<?xml version="1.0" encoding="UTF-8"?>
<svg id="Camada_1" data-name="Camada 1" xmlns="http://www.w3.org/2000/svg" width="24" height="24" version="1.1" viewBox="0 0 24 24">
  <path d="M12.007,21.5C4.694,21.5.123,13.583,3.78,7.25,7.436.917,16.578.917,20.234,7.25c.834,1.444,1.273,3.082,1.273,4.75-.006,5.244-4.256,9.494-9.5,9.5ZM12.007,3.5c-6.543,0-10.633,7.083-7.361,12.75,3.271,5.667,11.451,5.667,14.722,0,.746-1.292,1.139-2.758,1.139-4.25-.006-4.692-3.808-8.494-8.5-8.5ZM18.007,12.5H6.007c-.385,0-.625-.417-.433-.75.089-.155.254-.25.433-.25h12c.385,0,.625.417.433.75-.089.155-.254.25-.433.25Z" fill="#363636" stroke-width="0"/>
</svg>

<svg viewBox="0 0 24 24" xmlns="http://www.w3.org/2000/svg">
  <path d="M 12.007 21.5 C 4.694 21.5 0.123 13.583 3.78 7.25 C 7.436 0.917 16.578 0.917 20.234 7.25 C 21.068 8.694 21.507 10.332 21.507 12 C 21.501 17.244 17.251 21.494 12.007 21.5 Z M 12.007 3.5 C 5.464 3.5 1.374 10.583 4.646 16.25 C 7.917 21.917 16.097 21.917 19.368 16.25 C 20.114 14.958 20.507 13.492 20.507 12 C 20.501 7.308 16.699 3.506 12.007 3.5 Z M 18.007 12.5 L 6.007 12.5 C 5.622 12.5 5.382 12.083 5.574 11.75 C 5.663 11.595 5.828 11.5 6.007 11.5 L 18.007 11.5 C 18.392 11.5 18.632 11.917 18.44 12.25 C 18.351 12.405 18.186 12.5 18.007 12.5 Z"/>
</svg>
